X:1
T:Title
%%score { ( 1 3 ) | ( 2 4 ) }
L:1/8
Q:1/4=100
M:6/8
K:Ab
V:1 treble nm="Grand Piano"
V:3 treble 
V:2 bass 
V:4 bass 
V:1
 [Ec]2 [=D_c] [E=c]2 [Fd] | c2 B B3 | B2 =A B2 c | [DB]2 [CA] [CA]3 | [DF]2 [EG] [FA]2 [DF] | %5
w: Howard~E.~Smith * * *|||||
 [CE]2 [DF] [EG]2 [EA] | [=Dc]3 [DB]3 | B6 | c2 _c =c2 d | c2 B B3 | [GB]2 [_G=A] [=GB]2 [Gc] | %11
w: ||||||
 B2 A A3 | F2 [EG] [FA]2 [DF] | [CE]2 [DF] [DG]2 [EA] | [Ec]3 [DB]3 | [CA]6 | c3 e3 | F3 z3 | %18
w: |||||||
 B-[GB-][GB] c-[Gc-][Gc] | E6 | [A,DF]2 [A,EG] [A,FA][A,EG][A,DF] | [A,CE]2 [A,DF] [B,EG]2 [A,EA] | %22
w: ||||
 [=Dc]3 [DB]3 | B6 | c3 e3 | F3 z3 | B-[GB-][GB] c-[Gc-][Gc] | E6 | %28
w: ||||||
 [A,DF]2 [A,EG] [DFA][A,EG][A,DF] | [A,CE]2 [A,DF] [DG]2 [EA] | [Ec]3 [DB]3 | [CA]6 |] %32
w: ||||
V:2
 [A,,A,]2 [A,,A,] [A,,A,]2 [A,,A,] | [E,A,E]2 [E,G,D] [E,G,D]3 | %2
 [E,G,D]2 [E,G,C] [E,G,D]2 [E,G,E] | [A,,A,]2 [A,,A,] [A,,A,]3 | [D,A,]2 [D,A,] [D,D]2 [D,A,] | %5
 [A,,A,]2 [D,A,] [D,B,]2 [C,A,] | [B,,F,]3 [B,,A,]3 | [E,G,E]6 | [A,E]2 [A,=D] [A,E]2 [A,F] | %9
 [E,A,E]2 [E,G,E] [E,G,E]3 | [E,D]2 [E,C] [E,D]2 [E,E] | [A,DE]2 [A,CE] [A,CE]3 | %12
 [D,A,D]2 [D,A,] [D,D]2 [D,A,] | [A,,A,]2 [D,A,] [B,,E,]2 [C,A,] | [E,A,]3 [E,G,]3 | [A,,A,]6 | %16
 [EA]EE [EA]E.E | .[A,C]3 z3 | z DD z DD | A,,C,F, .E,3 | D,2 D, D,D,D, | A,,2 D, D,2 C, | %22
 [B,,F,]3 [B,,A,]3 | [E,G,E]6 | [EA]EE [EA]E.E | .[A,C]3 z3 | z DD z DD | A,,C,F, .E,3 | %28
 D,2 D, D,D,D, | A,,2 D, [B,,E,]2 [C,A,] | [E,A,]3 [E,G,]3 | [A,,A,]6 |] %32
V:3
 x6 | x6 | x6 | x6 | x6 | x6 | x6 | x6 | x6 | x6 | x6 | x6 | x6 | x6 | x6 | x6 | z AA z A.A | %17
 z CC [DF][DFG][DFA] | .[DG]3 .[DG]3 | [A,C][A,C][A,C] .[A,C]3 | x6 | x6 | x6 | x6 | z AA z A.A | %25
 z CC [DF][DFG][DFA] | .[DG]3 .[DG]3 | [A,C][A,C][A,C] .[A,C]3 | x6 | x6 | x6 | x6 |] %32
V:4
 x6 | x6 | x6 | x6 | x6 | x6 | x6 | x6 | x6 | x6 | x6 | x6 | x6 | x6 | x6 | x6 | A,3 C3 | %17
 F,-[F,-A,][F,A,] D,C,B,, | E,3 E,3 | x6 | x6 | x6 | x6 | x6 | A,3 C3 | F,-[F,-A,][F,A,] D,C,B,, | %26
 E,3 E,3 | x6 | x6 | x6 | x6 | x6 |] %32

